X:1
T:Title
%%score { ( 1 3 ) | ( 2 4 ) }
L:1/8
M:4/4
K:Ab
V:1 treble nm="Grand Piano"
V:3 treble 
V:2 bass 
V:4 bass 
V:1
 z4 z2 z[Q:1/4=100] [CE] |[M:3/4] [DF][CE] [_C=D] [=CE]2 [CA] | [Ec]3 [CA]2 [CE] | %3
 [DF][CE] [_C=D] [=CE]2 [CA] | G4- GE | FE =D E2 G | d3 B2 B | B=A B F2 G | [CE]4- [CE][CE] | %9
 [DF][CE] [_C=D] [=CE]2 [CA] | [Ec]3 [CA]2 A | AG A B2 A | d4- dA | AG A E2 A | AG A E2 c | %15
 [Ge]2 [Gd] [Gc]2 [GB] |[M:5/8] A-A- A3 |[M:3/4] [CEc]3 [CFc]3 | [CEc]4- [CEc][CE] | %19
 [DF][CE] [_C=D] [=CE]2 [CE] | [DF][CE] [_C=D] [=CE]2 [CE] | [Fd]3 [Gd]3 | [Fd]4- [Fd]F | %23
 GF =E F2 F | GF =E F2 _E | [ce]3 [Be]3 | [Ae]4- [Ae][ce] | [Ec]3 [=EBc=e]3 | %28
[M:15/16] [FAdf]3/2-[FAdf]3/2-[FAdf]3/2- [FAdf]3 |[M:3/4] c e2 c' e'2 | .B2 z b z2 | A6- | A3 A3- | %33
 A6 |] %34
V:2
 z4 z2 z [A,,A,] |[M:3/4] [A,,A,]2 [A,,A,] [A,,A,]2 [A,,A,] | [A,,A,]3 [A,,A,]2 [A,,A,] | %3
 [A,,A,]2 [A,,A,] [A,,A,]2 [A,,A,] | [E,B,D]4- [E,B,D][E,B,D] | [E,B,D]2 [E,B,] [E,B,D]2 [E,B,D] | %6
 [E,G,D]3 [E,G,D]2 [E,G,D] | [E,G,D]2 [E,G,D] [E,B,D]2 [E,B,D] | [A,,A,]4- [A,,A,][A,,A,] | %9
 [A,,A,]2 [A,,A,] [A,,A,]2 [A,,A,] | [A,,A,]3 [A,,A,]2 [A,C] | [A,CE]2 [A,CE] [_G,CE]2 [G,CE] | %12
 [F,A,D]4- [F,A,D][F,A,D] | [F,A,D]2 [F,A,D] [E,A,C]2 [E,CE] | [=E,_C=D]2 [E,CD] [_E,=C]2 [E,A,E] | %15
 [E,B,]2 [E,B,] [E,E]2 [E,D] |[M:5/8] [A,C]-[A,C]- [A,C]3 |[M:3/4] [A,,A,]3 [A,,A,]3 | %18
 [A,,A,]4- [A,,A,][A,,A,] | [A,,A,]2 [A,,A,] [A,,A,]2 [A,,A,] | [A,,A,]2 [A,,A,] [A,,A,]2 [A,,A,] | %21
 [E,B,D]3 [E,B,D]3 | [E,B,D]4- [E,B,D][E,B,D] | [E,B,D]2 [E,B,D] [E,B,D]2 [E,B,D] | %24
 [E,B,D]2 [E,B,D] [E,B,D]2 [E,B,D] | [A,CE]3 [A,CE]3 | [A,CE]4- [A,CE][A,CE] | [A,C]3 [C,G,B,]3 | %28
[M:15/16] [D,A,]3/2-[D,A,]3/2-[D,A,]3/2- [D,A,]3 |[M:3/4] [E,A,CE]3[K:treble] [FAce]3 | z .e3 e'2 | %31
 z2 CD C_C | C2 CD C_C | C6 |] %34
V:3
 x8 |[M:3/4] x6 | x6 | x6 | x6 | x6 | x6 | x6 | x6 | x6 | x6 | x6 | x6 | x6 | x6 | x6 |[M:5/8] x5 | %17
[M:3/4] x6 | x6 | x6 | x6 | x6 | x6 | x6 | x6 | x6 | x6 | x6 |[M:15/16] x15/2 |[M:3/4] x6 | %30
 [B,DG]3 [Bdg]3 | [A,C]2 EF E=D | E2 .E2 E=D | E6 |] %34
V:4
 x8 |[M:3/4] x6 | x6 | x6 | x6 | x6 | x6 | x6 | x6 | x6 | x6 | x6 | x6 | x6 | x6 | x6 |[M:5/8] x5 | %17
[M:3/4] x6 | x6 | x6 | x6 | x6 | x6 | x6 | x6 | x6 | x6 | x6 |[M:15/16] x15/2 | %29
[M:3/4] x3[K:treble] x3 | E,3 E3 | A,,6- | A,,6- | A,,6 |] %34

